X: 6
T: The Swallow's Tail
R: reel
M: 4/4
L: 1/8
K: Ador
|:eAcA eAcA | cd ef ge dB | G2BG dGBG | Bdef g2fg |eAcA eAcA | cdef g2fg | afge dBGB | AcBG A2gf:||:e~a3 aged | (3Bcd ed gedB | G2BG dGBG | cdef g2fg |e~a3 aged | (3Bcd ef g2fg | afge dBGB |1AcBG A2cd:|2AcBG A2fg|


Tune 105	Setting 12670

